X:1
T:Monkey in the Dogcart
L:1/8
M:4/4
I:linebreak $
K:C
V:1 treble
V:1
 "C"e3 d c2 A2 | dcAc- c3 e- | e2 d2 c2 A2 | "G7"[Bg]3 a [Bg]3 e- | "C"eg e2 c4 |$
 "F"dcAc A3 [G,G-] | "G7"[G,G]2 B2 A2 B2 | "C"[Ec]3 d [Ec]3 c- ::"C" c2 c'2 e2 g2 | aged c3 c-  |$
 c2 c'2 a2 g2 | "Am"a3 b a3 g- | "C"g2 c'2 e2 g2 | "F"aged c2 Ac | "G"B2 G2 A2 B2 | "C"[Ec]4 [Ec]4 :|
